X: 306
T: Jewish Freilakhs
T: Yismecha ha-shamayim
R: freilach
Q: 1/4=126
B: German Goldenshteyn "Shpilt klezmorimlach klingen zoln di gesalach" New York 2003 v.3 #6
Z: 2012 John Chambers <jc:trillian.mit.edu>
M: 2/4
L: 1/16
K: Em
[|\
(^DE)E2 B,2E2 | G4 F4 | E8- | E8 |\
(FA)G2 D2G2 | B4 A4 | G8- | G8 |
(Bc)B2 G2B2 | (de)d2 c2B2 | A8 | e8|\
(~B2A2) (~A2G2) | (~G2F2) (~F2E2) | B8- | B8 |
(Bc)B2 G2B2 | (de)d2 c2B2 | A4 e4 | c4 A4 |\
G2A2 B2G2 | ~A2E2 G2F2 | E8- | E8 |]
|:\
(^df)e2 e2e2 | e2B2 (gf)e2 | ^d2e2 c2B2 | A8 |\
^G2A2 B2c2 | ^d2e2 (ed)c2 | B8- | B8 |
(FG)G2 D2G2 | (^AB)B2 G2B2 | (de)d2 c2B2 | A8 |\
(~G2F2) (~A2F2) | (~G2E2) (~F2D2 | E8- | E8 :|
